src/img/train.svg

<svg fill="none" height="24" viewBox="0 0 24 24" width="24" xmlns="http://www.w3.org/2000/svg"><path clip-rule="evenodd" d="m20.75 5.75v10c0 2.024-2.4072 3.75-5.079 3.75l2.4602 1.9422c.2323.1835.1017.5578-.1937.5578h-11.875c-.29602 0-.42547-.3748-.19363-.5578l2.46011-1.9422c-2.66414 0-5.07898-1.7205-5.07898-3.75v-10c0-2.07105 2.5-3.75 5-3.75h7.5c2.5391 0 5 1.67895 5 3.75zm-1.875 5.3125v-4.375c0-.51777-.4197-.9375-.9375-.9375h-11.875c-.51777 0-.9375.41973-.9375.9375v4.375c0 .5178.41973.9375.9375.9375h11.875c.5178 0 .9375-.4197.9375-.9375zm-9.0625 4.6875c0-1.2081.9794-2.1875 2.1875-2.1875s2.1875.9794 2.1875 2.1875-.9794 2.1875-2.1875 2.1875-2.1875-.9794-2.1875-2.1875z" fill="#6f6f6f" fill-rule="evenodd"/></svg>

<svg width="24" height="24" viewBox="0 0 24 24" fill="none" 
  xmlns="http://www.w3.org/2000/svg">
  <path fill-rule="evenodd" clip-rule="evenodd" d="M20.75 5.75V15.75C20.75 17.774 18.3428 19.5 15.671 19.5L18.1312 21.4422C18.3635 21.6257 18.2329 22 17.9375 22H6.0625C5.76648 22 5.63703 21.6252 5.86887 21.4422L8.32898 19.5C5.66484 19.5 3.25 17.7795 3.25 15.75V5.75C3.25 3.67895 5.75 2 8.25 2H15.75C18.2891 2 20.75 3.67895 20.75 5.75ZM18.875 11.0625V6.6875C18.875 6.16973 18.4553 5.75 17.9375 5.75H6.0625C5.54473 5.75 5.125 6.16973 5.125 6.6875V11.0625C5.125 11.5803 5.54473 12 6.0625 12H17.9375C18.4553 12 18.875 11.5803 18.875 11.0625ZM9.8125 15.75C9.8125 14.5419 10.7919 13.5625 12 13.5625C13.2081 13.5625 14.1875 14.5419 14.1875 15.75C14.1875 16.9581 13.2081 17.9375 12 17.9375C10.7919 17.9375 9.8125 16.9581 9.8125 15.75Z" fill="#6F6F6F"/>
</svg>
